svgs/sharp-solid/car.svg

<svg xmlns="http://www.w3.org/2000/svg" viewBox="0 0 512 512"><!--! Font Awesome Pro 6.6.0 by @fontawesome - https://fontawesome.com License - https://fontawesome.com/license (Commercial License) Copyright 2024 Fonticons, Inc. --><path d="M120 32L97.3 32 89.8 53.4 41.3 192 0 192 0 400l0 80 96 0 0-80 320 0 0 80 96 0 0-80 0-208-41.3 0L422.2 53.4 414.7 32 392 32 120 32zM402.9 192l-293.8 0 33.6-96 226.6 0 33.6 96zM64 288a32 32 0 1 1 64 0 32 32 0 1 1 -64 0zm352-32a32 32 0 1 1 0 64 32 32 0 1 1 0-64z"/></svg>

<svg xmlns="http://www.w3.org/2000/svg" viewBox="0 0 512 512"><!--! Font Awesome Pro 6.4.0 by @fontawesome - https://fontawesome.com License - https://fontawesome.com/license (Commercial License) Copyright 2023 Fonticons, Inc. --><path d="M120 32H97.3L89.8 53.4 41.3 192H0V400v80H96V400H416v80h96V400 192H470.7L422.2 53.4 414.7 32H392 120zM402.9 192H109.1l33.6-96H369.3l33.6 96zM64 288a32 32 0 1 1 64 0 32 32 0 1 1 -64 0zm352-32a32 32 0 1 1 0 64 32 32 0 1 1 0-64z"/></svg>
